src/assets/top/accessories/Prescription01.svg

<svg width='280px' height='280px' viewBox='0 0 280 280' version='1.1' xmlns='http://www.w3.org/2000/svg'>
      <g
        id='Top/_Resources/Prescription-01'
        fill='none'
        transform='translate(62.000000, 85.000000)'
        strokeWidth='1'>
        <defs>
          <filter
            x='-0.8%'
            y='-2.4%'
            width='101.5%'
            height='109.8%'
            filterUnits='objectBoundingBox'
            id='filter1'>
            <feOffset
              dx='0'
              dy='2'
              in='SourceAlpha'
              result='shadowOffsetOuter1'
            />
            <feColorMatrix
              values='0 0 0 0 0   0 0 0 0 0   0 0 0 0 0  0 0 0 0.2 0'
              type='matrix'
              in='shadowOffsetOuter1'
              result='shadowMatrixOuter1'
            />
            <feMerge>
              <feMergeNode in='shadowMatrixOuter1' />
              <feMergeNode in='SourceGraphic' />
            </feMerge>
          </filter>
        </defs>
        <g
          id='Glasses'
          filter='url("#filter1")'
          transform='translate(8.000000, 8.000000)'
          fill='#D6EAF2'>
          <path
            d='M46.2491397,7.27516667 C48.6207695,7.2975 49.7419096,7.69183333 50.1459601,10.1651667 C50.5553446,12.6705 50.1572949,15.4871667 49.6852359,17.9548333 C48.9648125,21.7228333 47.7666627,25.4145 44.9776475,28.1685 C43.5084639,29.6188333 41.7165732,30.7748333 39.8106684,31.5641667 C38.7985419,31.9835 37.7297416,32.2861667 36.6612747,32.5158333 C36.3489024,32.5828333 33.6822357,32.9501667 35.3177735,32.7635 C31.5009631,33.1991667 27.3601122,33.1818333 24.1723805,30.7525 C20.6396056,28.0601667 18.2203032,23.7998333 17.1565036,19.5561667 C16.5340925,17.0731667 15.2262624,11.1345 17.6158944,9.14916667 C20.3532365,6.8745 46.2491397,7.27516667 46.2491397,7.27516667 L46.2491397,7.27516667 Z M22.2178029,0.4905 C16.7774562,0.677833333 13.1466691,1.63383333 10.4633337,7.06916667 C5.54571911,17.0301667 13.9627711,31.9688333 23.352278,36.0395 C34.3293166,40.7991667 46.5921826,35.5318333 52.3955746,26.0058333 C55.4689587,20.9621667 57.0224862,13.3231667 56.9224737,7.50383333 C56.7951245,0.0765 51.6071427,-0.1295 45.5090472,0.0338333333 L22.2178029,0.4905 Z'
            id='Frame-Stuff'
          />
          <path
            d='M79.6805515,7.27256667 C77.3089217,7.29523333 76.1877816,7.68923333 75.7837311,10.1625667 C75.3743466,12.6679 75.7723963,15.4845667 76.244122,17.9522333 C76.9648787,21.7202333 78.1630285,25.4119 80.9520437,28.1659 C82.4212273,29.6162333 84.213118,30.7722333 86.1190228,31.5619 C87.1311493,31.9809 88.1999496,32.2835667 89.2684165,32.5132333 C89.5807888,32.5802333 92.2471221,32.9479 90.6119177,32.7609 C94.4287281,33.1965667 98.569579,33.1792333 101.757311,30.7499 C105.290086,28.0575667 107.709388,23.7975667 108.773188,19.5539 C109.395599,17.0705667 110.703095,11.1322333 108.313797,9.14656667 C105.576455,6.8719 79.6805515,7.27256667 79.6805515,7.27256667 L79.6805515,7.27256667 Z M103.711555,0.4879 C109.152235,0.675233333 112.783022,1.63156667 115.466357,7.06656667 C120.383639,17.0275667 111.96692,31.9662333 102.577413,36.0372333 C91.6003746,40.7965667 79.3375086,35.5292333 73.5337832,26.0035667 C70.4607325,20.9595667 68.907205,13.3205667 69.0068841,7.50123333 C69.1345667,0.0739 74.3225485,-0.1321 80.420644,0.0315666667 L103.711555,0.4879 Z'
            id='Frame-Stuff'
          />
          <path
            d='M13.1969483,4.9267 C9.78501392,5.11836667 5.88606327,5.16436667 2.69005822,6.63936667 C-0.69461078,8.20136667 -1.2176675,11.7387 3.04920921,12.2260333 C4.97094906,12.4457 6.89488267,12.0827 8.78716336,11.7450333 C10.336903,11.4683667 12.4419791,11.5580333 13.9064752,10.9657 C16.6355213,9.86236667 16.4603333,4.74003333 13.1969483,4.9267'
            id='Frame-Stuff'
          />
          <path
            d='M112.73467,4.9267 C116.146606,5.11836667 120.045559,5.16436667 123.241565,6.63936667 C126.626236,8.20136667 127.149293,11.7387 122.882414,12.2260333 C120.960673,12.4457 119.036739,12.0827 117.144457,11.7450333 C115.594717,11.4683667 113.489639,11.5580333 112.025143,10.9657 C109.295782,9.86236667 109.471283,4.74003333 112.73467,4.9267'
            id='Frame-Stuff'
          />
          <path
            d='M73.1094302,7.01263333 C71.1631869,4.71263333 66.0912197,3.38463333 62.8914864,3.38463333 C59.6914198,3.38463333 54.7681378,4.71263333 52.8222279,7.01263333 C51.8407719,8.1723 51.8074344,9.72396667 53.5083137,10.4509667 C55.6262451,11.3566333 57.5174814,9.7143 59.2126933,8.8553 C61.3809643,7.75663333 64.7120473,7.8773 66.7189648,8.8553 C68.4271783,9.68796667 70.3050797,11.3566333 72.4233444,10.4509667 C74.1242237,9.72396667 74.0908862,8.1723 73.1094302,7.01263333'
            id='Frame-Stuff'
          />
        </g>
      </g>
</svg>

<svg width="280" height="280" xmlns="http://www.w3.org/2000/svg"><g fill="none" transform="translate(62 85)"><defs><filter x="-.8%" y="-2.4%" width="101.5%" height="109.8%" filterUnits="objectBoundingBox" id="a"><feOffset dy="2" in="SourceAlpha" result="shadowOffsetOuter1"/><feColorMatrix values="0 0 0 0 0 0 0 0 0 0 0 0 0 0 0 0 0 0 0.2 0" in="shadowOffsetOuter1" result="shadowMatrixOuter1"/><feMerge><feMergeNode in="shadowMatrixOuter1"/><feMergeNode in="SourceGraphic"/></feMerge></filter></defs><g filter="url(&quot;#a&quot;)" transform="translate(8 8)" fill="#D6EAF2"><path d="M46.25 7.275c2.37.022 3.492.417 3.896 2.89.41 2.506.011 5.322-.46 7.79-.721 3.768-1.92 7.46-4.708 10.214-1.47 1.45-3.261 2.606-5.167 3.395-1.012.42-2.081.722-3.15.952-.312.067-2.979.434-1.343.248-3.817.435-7.958.418-11.146-2.012-3.532-2.692-5.952-6.952-7.015-11.196-.623-2.483-1.93-8.422.459-10.407 2.737-2.274 28.633-1.874 28.633-1.874zM22.217.49c-5.44.188-9.071 1.144-11.755 6.58-4.917 9.96 3.5 24.899 12.89 28.97 10.976 4.76 23.24-.508 29.043-10.034 3.073-5.044 4.626-12.683 4.526-18.502C56.795.077 51.607-.13 45.51.034L22.218.49zM79.68 7.273c-2.371.022-3.492.416-3.896 2.89-.41 2.505-.012 5.322.46 7.79.72 3.767 1.919 7.459 4.708 10.213 1.47 1.45 3.261 2.606 5.167 3.396 1.012.419 2.08.722 3.15.951.312.067 2.978.435 1.343.248 3.817.436 7.958.418 11.145-2.011 3.533-2.692 5.952-6.952 7.016-11.196.623-2.483 1.93-8.422-.46-10.407-2.737-2.275-28.632-1.874-28.632-1.874zM103.713.488c5.44.187 9.071 1.144 11.754 6.579 4.918 9.96-3.5 24.9-12.889 28.97-10.977 4.76-23.24-.508-29.043-10.033C70.46 20.96 68.907 13.32 69.007 7.5 69.135.074 74.323-.132 80.42.031l23.29.457z"/><path d="M13.197 4.927c-3.412.191-7.31.237-10.507 1.712-3.385 1.562-3.908 5.1.36 5.587 1.92.22 3.845-.143 5.737-.481 1.55-.277 3.655-.187 5.12-.78 2.729-1.103 2.553-6.225-.71-6.038M112.735 4.927c3.412.191 7.31.237 10.507 1.712 3.384 1.562 3.907 5.1-.36 5.587-1.921.22-3.845-.143-5.738-.481-1.55-.277-3.654-.187-5.119-.78-2.73-1.103-2.554-6.225.71-6.038M73.11 7.013c-1.947-2.3-7.019-3.628-10.219-3.628-3.2 0-8.123 1.328-10.069 3.628-.981 1.16-1.015 2.711.686 3.438 2.118.906 4.01-.737 5.705-1.596 2.168-1.098 5.499-.978 7.506 0 1.708.833 3.586 2.502 5.704 1.596 1.701-.727 1.668-2.279.686-3.438"/></g></g></svg>
